X:2563
T:Hey Boys up go we
O:england
M:4/4
L:1/4
S:Henry Atkinson 1694/5 transcribed John Stokoe 1883
N:Clef, time and key signature (if any) missing , also 1st note bar 6,and
N:
N:1st and 2nd notes bar 11.  Tune seems to be in C
K:C
C|CcBA|A/2G/2FE/2F/2G|FED>C|c3C|CcBA|GFE/2F/2G|FEDC|c3G|cde/2f/2e|d/2B/2
cA>G|GGA>G|G3d|gfe/2d/2c|fe/2d/2BA/2G/2|cEDB|c2G||


